src/assets/img/svg/h1.svg

<?xml version="1.0" encoding="UTF-8"?>
<svg width="412" height="37" fill="none" viewBox="0 0 412 37" xmlns="http://www.w3.org/2000/svg">
<path d="m23.766 6.2188h-9.7031v30.047h-3.9375v-30.047h-9.6797v-3.5625h23.32v3.5625z" fill="url(#a)"/>
<path d="m55.594 12.266-7.1954 24h-3.9843l-4.9453-17.18c-0.125-0.4531-0.211-0.75-0.2579-0.8906-0.0312-0.1562-0.0781-0.4141-0.1406-0.7734h-0.0937c-0.0782 0.3593-0.1485 0.625-0.211 0.7969-0.0468 0.1718-0.1328 0.4453-0.2578 0.8203l-5.3672 17.226h-3.9375l-7.2656-24h4.0313l4.9687 17.742c0.0781 0.2656 0.1406 0.5156 0.1875 0.75s0.1016 0.5234 0.1641 0.8672h0.1406c0.0781-0.3594 0.1484-0.6484 0.2109-0.8672 0.0625-0.2344 0.1406-0.5 0.2344-0.7969l5.5312-17.695h3.6094l4.9688 17.789c0.0625 0.2187 0.125 0.4609 0.1875 0.7265 0.0625 0.25 0.1328 0.5313 0.2109 0.8438h0.1406c0.0782-0.3125 0.1328-0.5547 0.1641-0.7266 0.0469-0.1875 0.125-0.4687 0.2344-0.8437l4.875-17.789h3.7969z" fill="url(#a)"/>
<path d="m61.664 6.8516c-0.8282 0-1.5-0.27344-2.0157-0.82031-0.5156-0.5625-0.7734-1.2188-0.7734-1.9688s0.2578-1.3984 0.7734-1.9453c0.5157-0.5625 1.1875-0.84375 2.0157-0.84375 0.8281 0 1.5 0.28125 2.0156 0.84375 0.5156 0.54687 0.7734 1.1953 0.7734 1.9453s-0.2578 1.4062-0.7734 1.9688c-0.5156 0.54687-1.1875 0.82031-2.0156 0.82031zm1.875 29.414h-3.8438v-24h3.8438v24z" fill="url(#a)"/>
<path d="m83.25 34.742c-0.7031 0.7031-1.4766 1.2187-2.3203 1.5469-0.8438 0.3281-1.8359 0.4921-2.9766 0.4921-1.8906 0-3.3515-0.5234-4.3828-1.5703-1.0312-1.0625-1.5469-2.5781-1.5469-4.5468v-15.117h-4.125v-3.2813h4.125v-5.6718l3.8438-0.67969v6.3515h6.4219v3.2813h-6.4219v14.789c0 1.1407 0.2187 1.9688 0.6562 2.4844s1.125 0.7735 2.0625 0.7735c0.4688 0 0.9141-0.0938 1.336-0.2813 0.4375-0.1875 0.8906-0.5469 1.3593-1.0781l1.9688 2.5078z" fill="url(#a)"/>
<path d="m100.41 34.742c-0.7029 0.7031-1.4763 1.2187-2.3201 1.5469-0.8437 0.3281-1.8359 0.4921-2.9765 0.4921-1.8906 0-3.3516-0.5234-4.3828-1.5703-1.0313-1.0625-1.5469-2.5781-1.5469-4.5468v-15.117h-4.125v-3.2813h4.125v-5.6718l3.8437-0.67969v6.3515h6.4219v3.2813h-6.4219v14.789c0 1.1407 0.2188 1.9688 0.6563 2.4844s1.125 0.7735 2.0625 0.7735c0.4687 0 0.914-0.0938 1.3359-0.2813 0.4375-0.1875 0.8907-0.5469 1.3594-1.0781l1.9685 2.5078z" fill="url(#a)"/>
<path d="m124.76 24.945h-17.32c0 2.9688 0.703 5.1406 2.109 6.5156 1.422 1.3594 3.109 2.0391 5.062 2.0391 1.469 0 2.758-0.3359 3.868-1.0078 1.125-0.6875 2.054-1.7031 2.789-3.0469l3.14 1.5938c-0.844 1.7187-2.117 3.1171-3.82 4.1953-1.688 1.0625-3.766 1.5937-6.234 1.5937-3.188 0-5.805-1.0547-7.852-3.164-2.031-2.1094-3.047-5.211-3.047-9.3047 0-3.6406 1.031-6.6563 3.094-9.0469 2.062-2.4063 4.703-3.6094 7.922-3.6094 3.265 0 5.797 0.9922 7.593 2.9766 1.797 1.9687 2.696 4.7187 2.696 8.25v2.0156zm-3.938-3.2109c0-2.0782-0.57-3.711-1.711-4.8985-1.14-1.2031-2.711-1.8047-4.711-1.8047-1.937 0-3.523 0.6407-4.757 1.9219-1.219 1.2813-1.946 2.875-2.18 4.7813h13.359z" fill="url(#a)"/>
<path d="m142.41 15.875c-0.375-0.1719-0.781-0.3125-1.218-0.4219-0.422-0.1093-0.899-0.164-1.43-0.164-1.719 0-3.117 0.8203-4.196 2.4609-1.062 1.6406-1.593 3.7344-1.593 6.2812v12.234h-3.844v-24h3.844v4.3828h0.093c0.547-1.5 1.383-2.6718 2.508-3.5156 1.125-0.8594 2.383-1.289 3.774-1.289 0.64 0 1.218 0.0546 1.734 0.164 0.516 0.0938 1.102 0.2969 1.758 0.6094l-1.43 3.2578z" fill="url(#a)"/>
<path d="m159.33 36.266v-33.609h9.281c5.829 0 10.243 1.3438 13.243 4.0312 3.015 2.6875 4.523 6.8047 4.523 12.352 0 5.4062-1.633 9.6328-4.898 12.68-3.266 3.0312-7.68 4.5468-13.243 4.5468h-8.906zm3.938-30.047v26.484h5.015c4.407 0 7.836-1.125 10.289-3.375s3.68-5.6484 3.68-10.195c0-4.5156-1.133-7.7969-3.398-9.8437-2.266-2.0469-5.711-3.0703-10.336-3.0703h-5.25z" fill="url(#a)"/>
<path d="m202.29 36.828c-3.734 0-6.656-1.1093-8.766-3.3281-2.109-2.2344-3.164-5.2188-3.164-8.9531 0-3.8594 1.172-6.961 3.516-9.3047 2.344-2.3594 5.273-3.5391 8.789-3.5391 3.594 0 6.438 1.1485 8.531 3.4453 2.11 2.2813 3.164 5.2891 3.164 9.0235 0 3.6093-1.086 6.625-3.257 9.0469-2.157 2.4062-5.094 3.6093-8.813 3.6093zm0.211-3.3281c2.422 0 4.344-0.8047 5.766-2.4141 1.437-1.625 2.156-3.8828 2.156-6.7734 0-2.75-0.719-4.9766-2.156-6.6797-1.422-1.7187-3.344-2.5781-5.766-2.5781s-4.398 0.8672-5.93 2.6015c-1.515 1.7188-2.273 3.9688-2.273 6.75 0 2.9219 0.758 5.1719 2.273 6.75 1.532 1.5626 3.508 2.3438 5.93 2.3438z" fill="url(#a)"/>
<path d="m250.41 12.266-7.195 24h-3.984l-4.946-17.18c-0.125-0.4531-0.211-0.75-0.258-0.8906-0.031-0.1562-0.078-0.4141-0.14-0.7734h-0.094c-0.078 0.3593-0.148 0.625-0.211 0.7969-0.047 0.1718-0.133 0.4453-0.258 0.8203l-5.367 17.226h-3.937l-7.266-24h4.031l4.969 17.742c0.078 0.2656 0.141 0.5156 0.188 0.75 0.046 0.2344 0.101 0.5234 0.164 0.8672h0.14c0.078-0.3594 0.149-0.6484 0.211-0.8672 0.063-0.2344 0.141-0.5 0.235-0.7969l5.531-17.695h3.609l4.969 17.789c0.062 0.2187 0.125 0.4609 0.187 0.7265 0.063 0.25 0.133 0.5313 0.211 0.8438h0.141c0.078-0.3125 0.133-0.5547 0.164-0.7266 0.047-0.1875 0.125-0.4687 0.234-0.8437l4.875-17.789h3.797z" fill="url(#a)"/>
<path d="m274.36 36.266h-3.843v-14.25c0-2.3594-0.454-4.1094-1.36-5.25-0.906-1.1562-2.258-1.7344-4.054-1.7344-2.032 0-3.68 0.7188-4.946 2.1563-1.25 1.4219-1.875 3.2187-1.875 5.3906v13.688h-3.843v-24h3.843v3.4219h0.094c0.906-1.3281 2.016-2.3203 3.328-2.9766 1.313-0.6718 2.828-1.0078 4.547-1.0078 2.625 0 4.633 0.8516 6.023 2.5547 1.391 1.6875 2.086 4.1328 2.086 7.336v14.672z" fill="url(#a)"/>
<path d="m281.16 36.266v-35.531h3.844v35.531h-3.844z" fill="url(#a)"/>
<path d="m302.6 36.828c-3.735 0-6.657-1.1093-8.766-3.3281-2.109-2.2344-3.164-5.2188-3.164-8.9531 0-3.8594 1.172-6.961 3.516-9.3047 2.343-2.3594 5.273-3.5391 8.789-3.5391 3.593 0 6.437 1.1485 8.531 3.4453 2.109 2.2813 3.164 5.2891 3.164 9.0235 0 3.6093-1.086 6.625-3.258 9.0469-2.156 2.4062-5.094 3.6093-8.812 3.6093zm0.21-3.3281c2.422 0 4.344-0.8047 5.766-2.4141 1.438-1.625 2.156-3.8828 2.156-6.7734 0-2.75-0.718-4.9766-2.156-6.6797-1.422-1.7187-3.344-2.5781-5.766-2.5781-2.421 0-4.398 0.8672-5.929 2.6015-1.516 1.7188-2.274 3.9688-2.274 6.75 0 2.9219 0.758 5.1719 2.274 6.75 1.531 1.5626 3.508 2.3438 5.929 2.3438z" fill="url(#a)"/>
<path d="m337.34 36.266h-3.844v-3.1875h-0.094c-0.812 1.2031-1.843 2.1328-3.093 2.7891-1.235 0.6406-2.602 0.9609-4.102 0.9609-2.391 0-4.265-0.6406-5.625-1.9219-1.344-1.2812-2.016-2.8828-2.016-4.8046 0-2.25 0.704-3.9922 2.11-5.2266 1.406-1.25 3.375-2.0234 5.906-2.3203l6.914-0.7969v-1.5234c0-1.7344-0.453-3.0313-1.359-3.8906-0.891-0.875-2.117-1.3126-3.68-1.3126-1.484 0-2.711 0.336-3.68 1.0079-0.968 0.6562-1.711 1.5781-2.226 2.7656l-3.352-1.3828c0.782-1.8125 1.985-3.2188 3.61-4.2188 1.64-1 3.593-1.5 5.859-1.5 2.797 0 4.938 0.75 6.422 2.25 1.5 1.4844 2.25 3.5703 2.25 6.2578v16.055zm-3.844-9.75v-1.6406l-6.656 0.75c-1.484 0.1719-2.578 0.6016-3.281 1.2891-0.703 0.6718-1.055 1.5703-1.055 2.6953 0 1.2344 0.406 2.2265 1.219 2.9765 0.812 0.7344 1.875 1.1016 3.187 1.1016 1.969 0 3.555-0.6719 4.758-2.0156 1.219-1.3594 1.828-3.0781 1.828-5.1563z" fill="url(#a)"/>
<path d="m361.03 32.75c-0.89 1.3281-2.031 2.3438-3.422 3.0469-1.375 0.6875-2.906 1.0312-4.593 1.0312-3.36 0-5.961-1.0703-7.805-3.2109-1.828-2.1563-2.742-5.086-2.742-8.7891 0-4.0625 1.039-7.2656 3.117-9.6093 2.078-2.3438 4.789-3.5157 8.133-3.5157 1.625 0 3.062 0.2969 4.312 0.8907 1.266 0.5937 2.266 1.4062 3 2.4374h0.094v-14.297h3.844v35.531h-3.844v-3.5156h-0.094zm-14.625-8.1094c0 2.7188 0.625 4.875 1.875 6.4688 1.266 1.5937 3.008 2.3906 5.227 2.3906 2.344 0 4.195-0.7656 5.554-2.2969 1.376-1.5312 2.063-3.4609 2.063-5.789v-3.5391c0-1.9062-0.664-3.5234-1.992-4.8516-1.313-1.3281-3.016-1.9922-5.11-1.9922-2.328 0-4.179 0.8204-5.554 2.461s-2.063 4.0234-2.063 7.1484z" fill="url(#a)"/>
<path d="m391.94 24.945h-17.32c0 2.9688 0.703 5.1406 2.109 6.5156 1.422 1.3594 3.11 2.0391 5.063 2.0391 1.469 0 2.758-0.3359 3.867-1.0078 1.125-0.6875 2.055-1.7031 2.789-3.0469l3.141 1.5938c-0.844 1.7187-2.117 3.1171-3.821 4.1953-1.687 1.0625-3.765 1.5937-6.234 1.5937-3.187 0-5.805-1.0547-7.851-3.164-2.032-2.1094-3.047-5.211-3.047-9.3047 0-3.6406 1.031-6.6563 3.093-9.0469 2.063-2.4063 4.704-3.6094 7.922-3.6094 3.266 0 5.797 0.9922 7.594 2.9766 1.797 1.9687 2.695 4.7187 2.695 8.25v2.0156zm-3.937-3.2109c0-2.0782-0.57-3.711-1.711-4.8985-1.141-1.2031-2.711-1.8047-4.711-1.8047-1.938 0-3.524 0.6407-4.758 1.9219-1.219 1.2813-1.945 2.875-2.18 4.7813h13.36z" fill="url(#a)"/>
<path d="m409.59 15.875c-0.375-0.1719-0.782-0.3125-1.219-0.4219-0.422-0.1093-0.898-0.164-1.43-0.164-1.718 0-3.117 0.8203-4.195 2.4609-1.062 1.6406-1.594 3.7344-1.594 6.2812v12.234h-3.844v-24h3.844v4.3828h0.094c0.547-1.5 1.383-2.6718 2.508-3.5156 1.125-0.8594 2.383-1.289 3.773-1.289 0.641 0 1.219 0.0546 1.735 0.164 0.515 0.0938 1.101 0.2969 1.757 0.6094l-1.429 3.2578z" fill="url(#a)"/>
<defs>
<linearGradient id="a" x1="1.1659e-5" x2="412.38" y1="-15.734" y2="45.74" gradientUnits="userSpaceOnUse">
<stop stop-color="#2AA4F4" offset="0"/>
<stop stop-color="#007AD9" offset="1"/>
</linearGradient>
</defs>
</svg>

<svg width="412" height="37" viewBox="0 0 412 37" fill="none" xmlns="http://www.w3.org/2000/svg">
<path d="M23.7656 6.21875H14.0625V36.2656H10.125V6.21875H0.445312V2.65625H23.7656V6.21875Z" fill="url(#paint0_linear_18_6)"/>
<path d="M55.5938 12.2656L48.3984 36.2656H44.4141L39.4688 19.0859C39.3438 18.6328 39.2578 18.3359 39.2109 18.1953C39.1797 18.0391 39.1328 17.7812 39.0703 17.4219H38.9766C38.8984 17.7812 38.8281 18.0469 38.7656 18.2188C38.7188 18.3906 38.6328 18.6641 38.5078 19.0391L33.1406 36.2656H29.2031L21.9375 12.2656H25.9688L30.9375 30.0078C31.0156 30.2734 31.0781 30.5234 31.125 30.7578C31.1719 30.9922 31.2266 31.2812 31.2891 31.625H31.4297C31.5078 31.2656 31.5781 30.9766 31.6406 30.7578C31.7031 30.5234 31.7812 30.2578 31.875 29.9609L37.4062 12.2656H41.0156L45.9844 30.0547C46.0469 30.2734 46.1094 30.5156 46.1719 30.7812C46.2344 31.0312 46.3047 31.3125 46.3828 31.625H46.5234C46.6016 31.3125 46.6562 31.0703 46.6875 30.8984C46.7344 30.7109 46.8125 30.4297 46.9219 30.0547L51.7969 12.2656H55.5938Z" fill="url(#paint1_linear_18_6)"/>
<path d="M61.6641 6.85156C60.8359 6.85156 60.1641 6.57812 59.6484 6.03125C59.1328 5.46875 58.875 4.8125 58.875 4.0625C58.875 3.3125 59.1328 2.66406 59.6484 2.11719C60.1641 1.55469 60.8359 1.27344 61.6641 1.27344C62.4922 1.27344 63.1641 1.55469 63.6797 2.11719C64.1953 2.66406 64.4531 3.3125 64.4531 4.0625C64.4531 4.8125 64.1953 5.46875 63.6797 6.03125C63.1641 6.57812 62.4922 6.85156 61.6641 6.85156ZM63.5391 36.2656H59.6953V12.2656H63.5391V36.2656Z" fill="url(#paint2_linear_18_6)"/>
<path d="M83.25 34.7422C82.5469 35.4453 81.7734 35.9609 80.9297 36.2891C80.0859 36.6172 79.0938 36.7812 77.9531 36.7812C76.0625 36.7812 74.6016 36.2578 73.5703 35.2109C72.5391 34.1484 72.0234 32.6328 72.0234 30.6641V15.5469H67.8984V12.2656H72.0234V6.59375L75.8672 5.91406V12.2656H82.2891V15.5469H75.8672V30.3359C75.8672 31.4766 76.0859 32.3047 76.5234 32.8203C76.9609 33.3359 77.6484 33.5938 78.5859 33.5938C79.0547 33.5938 79.5 33.5 79.9219 33.3125C80.3594 33.125 80.8125 32.7656 81.2812 32.2344L83.25 34.7422Z" fill="url(#paint3_linear_18_6)"/>
<path d="M100.406 34.7422C99.7031 35.4453 98.9297 35.9609 98.0859 36.2891C97.2422 36.6172 96.25 36.7812 95.1094 36.7812C93.2188 36.7812 91.7578 36.2578 90.7266 35.2109C89.6953 34.1484 89.1797 32.6328 89.1797 30.6641V15.5469H85.0547V12.2656H89.1797V6.59375L93.0234 5.91406V12.2656H99.4453V15.5469H93.0234V30.3359C93.0234 31.4766 93.2422 32.3047 93.6797 32.8203C94.1172 33.3359 94.8047 33.5938 95.7422 33.5938C96.2109 33.5938 96.6562 33.5 97.0781 33.3125C97.5156 33.125 97.9688 32.7656 98.4375 32.2344L100.406 34.7422Z" fill="url(#paint4_linear_18_6)"/>
<path d="M124.758 24.9453H107.438C107.438 27.9141 108.141 30.0859 109.547 31.4609C110.969 32.8203 112.656 33.5 114.609 33.5C116.078 33.5 117.367 33.1641 118.477 32.4922C119.602 31.8047 120.531 30.7891 121.266 29.4453L124.406 31.0391C123.562 32.7578 122.289 34.1562 120.586 35.2344C118.898 36.2969 116.82 36.8281 114.352 36.8281C111.164 36.8281 108.547 35.7734 106.5 33.6641C104.469 31.5547 103.453 28.4531 103.453 24.3594C103.453 20.7188 104.484 17.7031 106.547 15.3125C108.609 12.9062 111.25 11.7031 114.469 11.7031C117.734 11.7031 120.266 12.6953 122.062 14.6797C123.859 16.6484 124.758 19.3984 124.758 22.9297V24.9453ZM120.82 21.7344C120.82 19.6562 120.25 18.0234 119.109 16.8359C117.969 15.6328 116.398 15.0312 114.398 15.0312C112.461 15.0312 110.875 15.6719 109.641 16.9531C108.422 18.2344 107.695 19.8281 107.461 21.7344H120.82Z" fill="url(#paint5_linear_18_6)"/>
<path d="M142.406 15.875C142.031 15.7031 141.625 15.5625 141.188 15.4531C140.766 15.3438 140.289 15.2891 139.758 15.2891C138.039 15.2891 136.641 16.1094 135.562 17.75C134.5 19.3906 133.969 21.4844 133.969 24.0312V36.2656H130.125V12.2656H133.969V16.6484H134.062C134.609 15.1484 135.445 13.9766 136.57 13.1328C137.695 12.2734 138.953 11.8438 140.344 11.8438C140.984 11.8438 141.562 11.8984 142.078 12.0078C142.594 12.1016 143.18 12.3047 143.836 12.6172L142.406 15.875Z" fill="url(#paint6_linear_18_6)"/>
<path d="M159.328 36.2656V2.65625H168.609C174.438 2.65625 178.852 4 181.852 6.6875C184.867 9.375 186.375 13.4922 186.375 19.0391C186.375 24.4453 184.742 28.6719 181.477 31.7188C178.211 34.75 173.797 36.2656 168.234 36.2656H159.328ZM163.266 6.21875V32.7031H168.281C172.688 32.7031 176.117 31.5781 178.57 29.3281C181.023 27.0781 182.25 23.6797 182.25 19.1328C182.25 14.6172 181.117 11.3359 178.852 9.28906C176.586 7.24219 173.141 6.21875 168.516 6.21875H163.266Z" fill="url(#paint7_linear_18_6)"/>
<path d="M202.289 36.8281C198.555 36.8281 195.633 35.7188 193.523 33.5C191.414 31.2656 190.359 28.2812 190.359 24.5469C190.359 20.6875 191.531 17.5859 193.875 15.2422C196.219 12.8828 199.148 11.7031 202.664 11.7031C206.258 11.7031 209.102 12.8516 211.195 15.1484C213.305 17.4297 214.359 20.4375 214.359 24.1719C214.359 27.7812 213.273 30.7969 211.102 33.2188C208.945 35.625 206.008 36.8281 202.289 36.8281ZM202.5 33.5C204.922 33.5 206.844 32.6953 208.266 31.0859C209.703 29.4609 210.422 27.2031 210.422 24.3125C210.422 21.5625 209.703 19.3359 208.266 17.6328C206.844 15.9141 204.922 15.0547 202.5 15.0547C200.078 15.0547 198.102 15.9219 196.57 17.6562C195.055 19.375 194.297 21.625 194.297 24.4062C194.297 27.3281 195.055 29.5781 196.57 31.1562C198.102 32.7188 200.078 33.5 202.5 33.5Z" fill="url(#paint8_linear_18_6)"/>
<path d="M250.406 12.2656L243.211 36.2656H239.227L234.281 19.0859C234.156 18.6328 234.07 18.3359 234.023 18.1953C233.992 18.0391 233.945 17.7812 233.883 17.4219H233.789C233.711 17.7812 233.641 18.0469 233.578 18.2188C233.531 18.3906 233.445 18.6641 233.32 19.0391L227.953 36.2656H224.016L216.75 12.2656H220.781L225.75 30.0078C225.828 30.2734 225.891 30.5234 225.938 30.7578C225.984 30.9922 226.039 31.2812 226.102 31.625H226.242C226.32 31.2656 226.391 30.9766 226.453 30.7578C226.516 30.5234 226.594 30.2578 226.688 29.9609L232.219 12.2656H235.828L240.797 30.0547C240.859 30.2734 240.922 30.5156 240.984 30.7812C241.047 31.0312 241.117 31.3125 241.195 31.625H241.336C241.414 31.3125 241.469 31.0703 241.5 30.8984C241.547 30.7109 241.625 30.4297 241.734 30.0547L246.609 12.2656H250.406Z" fill="url(#paint9_linear_18_6)"/>
<path d="M274.359 36.2656H270.516V22.0156C270.516 19.6562 270.062 17.9062 269.156 16.7656C268.25 15.6094 266.898 15.0312 265.102 15.0312C263.07 15.0312 261.422 15.75 260.156 17.1875C258.906 18.6094 258.281 20.4062 258.281 22.5781V36.2656H254.438V12.2656H258.281V15.6875H258.375C259.281 14.3594 260.391 13.3672 261.703 12.7109C263.016 12.0391 264.531 11.7031 266.25 11.7031C268.875 11.7031 270.883 12.5547 272.273 14.2578C273.664 15.9453 274.359 18.3906 274.359 21.5938V36.2656Z" fill="url(#paint10_linear_18_6)"/>
<path d="M281.156 36.2656V0.734375H285V36.2656H281.156Z" fill="url(#paint11_linear_18_6)"/>
<path d="M302.602 36.8281C298.867 36.8281 295.945 35.7188 293.836 33.5C291.727 31.2656 290.672 28.2812 290.672 24.5469C290.672 20.6875 291.844 17.5859 294.188 15.2422C296.531 12.8828 299.461 11.7031 302.977 11.7031C306.57 11.7031 309.414 12.8516 311.508 15.1484C313.617 17.4297 314.672 20.4375 314.672 24.1719C314.672 27.7812 313.586 30.7969 311.414 33.2188C309.258 35.625 306.32 36.8281 302.602 36.8281ZM302.812 33.5C305.234 33.5 307.156 32.6953 308.578 31.0859C310.016 29.4609 310.734 27.2031 310.734 24.3125C310.734 21.5625 310.016 19.3359 308.578 17.6328C307.156 15.9141 305.234 15.0547 302.812 15.0547C300.391 15.0547 298.414 15.9219 296.883 17.6562C295.367 19.375 294.609 21.625 294.609 24.4062C294.609 27.3281 295.367 29.5781 296.883 31.1562C298.414 32.7188 300.391 33.5 302.812 33.5Z" fill="url(#paint12_linear_18_6)"/>
<path d="M337.336 36.2656H333.492V33.0781H333.398C332.586 34.2812 331.555 35.2109 330.305 35.8672C329.07 36.5078 327.703 36.8281 326.203 36.8281C323.812 36.8281 321.938 36.1875 320.578 34.9062C319.234 33.625 318.562 32.0234 318.562 30.1016C318.562 27.8516 319.266 26.1094 320.672 24.875C322.078 23.625 324.047 22.8516 326.578 22.5547L333.492 21.7578V20.2344C333.492 18.5 333.039 17.2031 332.133 16.3438C331.242 15.4688 330.016 15.0312 328.453 15.0312C326.969 15.0312 325.742 15.3672 324.773 16.0391C323.805 16.6953 323.062 17.6172 322.547 18.8047L319.195 17.4219C319.977 15.6094 321.18 14.2031 322.805 13.2031C324.445 12.2031 326.398 11.7031 328.664 11.7031C331.461 11.7031 333.602 12.4531 335.086 13.9531C336.586 15.4375 337.336 17.5234 337.336 20.2109V36.2656ZM333.492 26.5156V24.875L326.836 25.625C325.352 25.7969 324.258 26.2266 323.555 26.9141C322.852 27.5859 322.5 28.4844 322.5 29.6094C322.5 30.8438 322.906 31.8359 323.719 32.5859C324.531 33.3203 325.594 33.6875 326.906 33.6875C328.875 33.6875 330.461 33.0156 331.664 31.6719C332.883 30.3125 333.492 28.5938 333.492 26.5156Z" fill="url(#paint13_linear_18_6)"/>
<path d="M361.031 32.75C360.141 34.0781 359 35.0938 357.609 35.7969C356.234 36.4844 354.703 36.8281 353.016 36.8281C349.656 36.8281 347.055 35.7578 345.211 33.6172C343.383 31.4609 342.469 28.5312 342.469 24.8281C342.469 20.7656 343.508 17.5625 345.586 15.2188C347.664 12.875 350.375 11.7031 353.719 11.7031C355.344 11.7031 356.781 12 358.031 12.5938C359.297 13.1875 360.297 14 361.031 15.0312H361.125V0.734375H364.969V36.2656H361.125V32.75H361.031ZM346.406 24.6406C346.406 27.3594 347.031 29.5156 348.281 31.1094C349.547 32.7031 351.289 33.5 353.508 33.5C355.852 33.5 357.703 32.7344 359.062 31.2031C360.438 29.6719 361.125 27.7422 361.125 25.4141V21.875C361.125 19.9688 360.461 18.3516 359.133 17.0234C357.82 15.6953 356.117 15.0312 354.023 15.0312C351.695 15.0312 349.844 15.8516 348.469 17.4922C347.094 19.1328 346.406 21.5156 346.406 24.6406Z" fill="url(#paint14_linear_18_6)"/>
<path d="M391.945 24.9453H374.625C374.625 27.9141 375.328 30.0859 376.734 31.4609C378.156 32.8203 379.844 33.5 381.797 33.5C383.266 33.5 384.555 33.1641 385.664 32.4922C386.789 31.8047 387.719 30.7891 388.453 29.4453L391.594 31.0391C390.75 32.7578 389.477 34.1562 387.773 35.2344C386.086 36.2969 384.008 36.8281 381.539 36.8281C378.352 36.8281 375.734 35.7734 373.688 33.6641C371.656 31.5547 370.641 28.4531 370.641 24.3594C370.641 20.7188 371.672 17.7031 373.734 15.3125C375.797 12.9062 378.438 11.7031 381.656 11.7031C384.922 11.7031 387.453 12.6953 389.25 14.6797C391.047 16.6484 391.945 19.3984 391.945 22.9297V24.9453ZM388.008 21.7344C388.008 19.6562 387.438 18.0234 386.297 16.8359C385.156 15.6328 383.586 15.0312 381.586 15.0312C379.648 15.0312 378.062 15.6719 376.828 16.9531C375.609 18.2344 374.883 19.8281 374.648 21.7344H388.008Z" fill="url(#paint15_linear_18_6)"/>
<path d="M409.594 15.875C409.219 15.7031 408.812 15.5625 408.375 15.4531C407.953 15.3438 407.477 15.2891 406.945 15.2891C405.227 15.2891 403.828 16.1094 402.75 17.75C401.688 19.3906 401.156 21.4844 401.156 24.0312V36.2656H397.312V12.2656H401.156V16.6484H401.25C401.797 15.1484 402.633 13.9766 403.758 13.1328C404.883 12.2734 406.141 11.8438 407.531 11.8438C408.172 11.8438 408.75 11.8984 409.266 12.0078C409.781 12.1016 410.367 12.3047 411.023 12.6172L409.594 15.875Z" fill="url(#paint16_linear_18_6)"/>
<defs>
<linearGradient id="paint0_linear_18_6" x1="1.16589e-05" y1="-15.7345" x2="412.377" y2="45.7396" gradientUnits="userSpaceOnUse">
<stop stop-color="#2AA4F4"/>
<stop offset="1" stop-color="#007AD9"/>
</linearGradient>
<linearGradient id="paint1_linear_18_6" x1="1.16589e-05" y1="-15.7345" x2="412.377" y2="45.7396" gradientUnits="userSpaceOnUse">
<stop stop-color="#2AA4F4"/>
<stop offset="1" stop-color="#007AD9"/>
</linearGradient>
<linearGradient id="paint2_linear_18_6" x1="1.16589e-05" y1="-15.7345" x2="412.377" y2="45.7396" gradientUnits="userSpaceOnUse">
<stop stop-color="#2AA4F4"/>
<stop offset="1" stop-color="#007AD9"/>
</linearGradient>
<linearGradient id="paint3_linear_18_6" x1="1.16589e-05" y1="-15.7345" x2="412.377" y2="45.7396" gradientUnits="userSpaceOnUse">
<stop stop-color="#2AA4F4"/>
<stop offset="1" stop-color="#007AD9"/>
</linearGradient>
<linearGradient id="paint4_linear_18_6" x1="1.16589e-05" y1="-15.7345" x2="412.377" y2="45.7396" gradientUnits="userSpaceOnUse">
<stop stop-color="#2AA4F4"/>
<stop offset="1" stop-color="#007AD9"/>
</linearGradient>
<linearGradient id="paint5_linear_18_6" x1="1.16589e-05" y1="-15.7345" x2="412.377" y2="45.7396" gradientUnits="userSpaceOnUse">
<stop stop-color="#2AA4F4"/>
<stop offset="1" stop-color="#007AD9"/>
</linearGradient>
<linearGradient id="paint6_linear_18_6" x1="1.16589e-05" y1="-15.7345" x2="412.377" y2="45.7396" gradientUnits="userSpaceOnUse">
<stop stop-color="#2AA4F4"/>
<stop offset="1" stop-color="#007AD9"/>
</linearGradient>
<linearGradient id="paint7_linear_18_6" x1="1.16589e-05" y1="-15.7345" x2="412.377" y2="45.7396" gradientUnits="userSpaceOnUse">
<stop stop-color="#2AA4F4"/>
<stop offset="1" stop-color="#007AD9"/>
</linearGradient>
<linearGradient id="paint8_linear_18_6" x1="1.16589e-05" y1="-15.7345" x2="412.377" y2="45.7396" gradientUnits="userSpaceOnUse">
<stop stop-color="#2AA4F4"/>
<stop offset="1" stop-color="#007AD9"/>
</linearGradient>
<linearGradient id="paint9_linear_18_6" x1="1.16589e-05" y1="-15.7345" x2="412.377" y2="45.7396" gradientUnits="userSpaceOnUse">
<stop stop-color="#2AA4F4"/>
<stop offset="1" stop-color="#007AD9"/>
</linearGradient>
<linearGradient id="paint10_linear_18_6" x1="1.16589e-05" y1="-15.7345" x2="412.377" y2="45.7396" gradientUnits="userSpaceOnUse">
<stop stop-color="#2AA4F4"/>
<stop offset="1" stop-color="#007AD9"/>
</linearGradient>
<linearGradient id="paint11_linear_18_6" x1="1.16589e-05" y1="-15.7345" x2="412.377" y2="45.7396" gradientUnits="userSpaceOnUse">
<stop stop-color="#2AA4F4"/>
<stop offset="1" stop-color="#007AD9"/>
</linearGradient>
<linearGradient id="paint12_linear_18_6" x1="1.16589e-05" y1="-15.7345" x2="412.377" y2="45.7396" gradientUnits="userSpaceOnUse">
<stop stop-color="#2AA4F4"/>
<stop offset="1" stop-color="#007AD9"/>
</linearGradient>
<linearGradient id="paint13_linear_18_6" x1="1.16589e-05" y1="-15.7345" x2="412.377" y2="45.7396" gradientUnits="userSpaceOnUse">
<stop stop-color="#2AA4F4"/>
<stop offset="1" stop-color="#007AD9"/>
</linearGradient>
<linearGradient id="paint14_linear_18_6" x1="1.16589e-05" y1="-15.7345" x2="412.377" y2="45.7396" gradientUnits="userSpaceOnUse">
<stop stop-color="#2AA4F4"/>
<stop offset="1" stop-color="#007AD9"/>
</linearGradient>
<linearGradient id="paint15_linear_18_6" x1="1.16589e-05" y1="-15.7345" x2="412.377" y2="45.7396" gradientUnits="userSpaceOnUse">
<stop stop-color="#2AA4F4"/>
<stop offset="1" stop-color="#007AD9"/>
</linearGradient>
<linearGradient id="paint16_linear_18_6" x1="1.16589e-05" y1="-15.7345" x2="412.377" y2="45.7396" gradientUnits="userSpaceOnUse">
<stop stop-color="#2AA4F4"/>
<stop offset="1" stop-color="#007AD9"/>
</linearGradient>
</defs>
</svg>
